packages/ffe-icons/icons/filled/md/earbuds.svg

<svg xmlns="http://www.w3.org/2000/svg" height="24" viewBox="0 -960 960 960" width="24"><path d="M320.057-130.001q-78.826 0-134.441-55.575Q130.001-241.15 130.001-320v-395.077q0-48.23 31.461-81.576 31.462-33.346 79.307-33.346 47.846 0 78.538 30.884Q349.999-768.23 349.999-720q0 46.384-32 78.192Q286-610.001 240-610.001h-50.001V-320q0 54.167 37.93 92.084t92.116 37.917q54.186 0 92.071-37.917T450.001-320v-320q0-78.85 55.558-134.424 55.558-55.575 134.384-55.575t134.441 55.575Q829.999-718.85 829.999-640v400q0 46.384-34.461 78.192-34.461 31.807-80.461 31.807-45.999 0-75.538-32-29.538-31.999-29.538-78.191 0-46.192 32-78Q674-349.999 720-349.999h50.001V-640q0-54.167-37.93-92.084t-92.116-37.917q-54.186 0-92.071 37.917T509.999-640v320q0 78.85-55.558 134.424-55.558 55.575-134.384 55.575Z"/></svg>

<svg xmlns="http://www.w3.org/2000/svg" height="24" viewBox="0 -960 960 960" width="24"><path d="M320.06-130q-78.83 0-134.44-55.58Q130-241.15 130-320v-395.08q0-48.23 31.46-81.57Q192.92-830 240.77-830q47.84 0 78.54 30.89Q350-768.23 350-720q0 46.38-32 78.19Q286-610 240-610h-50v290q0 54.17 37.93 92.08Q265.86-190 320.05-190q54.18 0 92.07-37.92Q450-265.83 450-320v-320q0-78.85 55.56-134.42Q561.12-830 639.94-830q78.83 0 134.44 55.58Q830-718.85 830-640v400q0 46.38-34.46 78.19Q761.08-130 715.08-130q-46 0-75.54-32Q610-194 610-240.19t32-78Q674-350 720-350h50v-290q0-54.17-37.93-92.08Q694.14-770 639.95-770q-54.18 0-92.07 37.92Q510-694.17 510-640v320q0 78.85-55.56 134.42Q398.88-130 320.06-130Z"/></svg>
